src/assets/confirm.svg

<svg width="296" height="307" viewBox="0 0 296 307" fill="none" xmlns="http://www.w3.org/2000/svg">
<path d="M262.572 233.636L262.566 233.774L269.491 307H218.959L212.41 262.027L209.527 305.847L157.634 305.27L163.146 247.739L167.834 221.072V221.066L168.537 217.053H261.194L261.315 218.506L262.572 233.636Z" fill="#2F2E41"/>
<path d="M129.031 276.085C134.383 277.06 139.963 271.033 141.495 262.623C142.166 258.942 141.949 255.414 141.045 252.529L141.866 247.681L155.637 182.465C155.637 182.465 180.995 131.74 180.994 122.934C180.994 114.128 173.659 109.809 173.659 109.809L163.733 109.902L132.608 185.922L127.002 242.098L126.095 249.806C124.232 252.186 122.786 255.411 122.115 259.092C120.583 267.502 123.679 275.11 129.031 276.085Z" fill="#FFB6B6"/>
<path d="M229.995 78.3853L220.77 57.0518L190.788 62.2411L188.77 87.3405L229.995 78.3853Z" fill="#FFB6B6"/>
<path opacity="0.1" d="M229.995 78.3853L220.77 57.0518L190.788 62.2411L188.77 87.3405L229.995 78.3853Z" fill="black"/>
<path d="M295.149 122.782C295.149 122.782 273.816 82.998 269.78 78.9619C267.983 77.1652 265.159 77.1402 262.576 77.6638L232.878 67.4303L222.812 61.7745L222.149 72.5346L189.102 78.4662C189.286 71.9042 190.211 69.4083 190.211 69.4083L178.103 83.5746L154.463 95.1062L154.476 95.21C152.741 95.8156 151.097 96.8518 149.851 98.5657C145.238 104.908 132.553 182.17 132.553 182.17L159.653 187.936L163.341 164.792L165.995 185.629L168.013 224.549C168.013 224.549 204.914 256.261 222.788 244.729C240.662 233.197 262.572 233.774 262.572 233.774L263.119 215.734C263.508 215.112 263.726 214.747 263.726 214.747L263.149 150.755V133.728C267.541 139.847 272.842 145.11 279.005 147.575C299.185 155.647 295.149 122.782 295.149 122.782V122.782Z" fill="#E6E6E6"/>
<path d="M202.645 65.9946C217.878 65.9946 230.228 53.6453 230.228 38.4118C230.228 23.1782 217.878 10.829 202.645 10.829C187.411 10.829 175.062 23.1782 175.062 38.4118C175.062 53.6453 187.411 65.9946 202.645 65.9946Z" fill="#FFB6B6"/>
<path d="M222.433 46.207C222.433 46.207 224.831 37.8122 230.228 38.4118C235.625 39.0115 236.824 34.2144 235.625 31.8159C234.425 29.4174 232.027 17.4249 232.027 17.4249C232.027 17.4249 233.226 9.03015 226.031 7.8309C218.835 6.63165 216.437 5.4324 215.237 3.03389C214.038 0.63539 196.049 -1.76311 190.053 1.83464C184.057 5.4324 179.26 12.3352 175.063 14.2804C170.865 16.2257 167.267 19.8234 169.666 25.8197C172.064 31.8159 175.543 43.5433 175.543 43.5433C175.543 43.5433 181.658 41.41 182.858 45.0077C184.057 48.6055 179.26 43.8085 185.256 34.2144C191.252 24.6204 191.252 15.0264 200.846 18.6242C210.44 22.2219 221.234 21.0227 220.034 28.2182C218.835 35.4137 222.433 46.207 222.433 46.207V46.207Z" fill="#2F2E41"/>
<path d="M220.746 264.872H11.2646C5.34045 264.872 0.520996 260.053 0.520996 254.129V142.853C0.520996 136.929 5.34045 132.109 11.2646 132.109H220.746C226.67 132.109 231.49 136.929 231.49 142.853V254.129C231.49 260.053 226.67 264.872 220.746 264.872Z" fill="white"/>
<path d="M220.746 264.872H11.2646C5.34045 264.872 0.520996 260.053 0.520996 254.129V142.853C0.520996 136.929 5.34045 132.109 11.2646 132.109H220.746C226.67 132.109 231.49 136.929 231.49 142.853V254.129C231.49 260.053 226.67 264.872 220.746 264.872ZM11.2646 133.903C6.32992 133.903 2.31509 137.918 2.31509 142.853V254.129C2.31509 259.064 6.32992 263.078 11.2646 263.078H220.746C225.681 263.078 229.695 259.064 229.695 254.129V142.853C229.695 137.918 225.681 133.903 220.746 133.903H11.2646Z" fill="#3F3D56"/>
<path d="M204.578 145.565C206.064 145.565 207.269 144.36 207.269 142.874C207.269 141.387 206.064 140.183 204.578 140.183C203.092 140.183 201.887 141.387 201.887 142.874C201.887 144.36 203.092 145.565 204.578 145.565Z" fill="#3F3D56"/>
<path d="M211.755 145.565C213.241 145.565 214.446 144.36 214.446 142.874C214.446 141.387 213.241 140.183 211.755 140.183C210.268 140.183 209.063 141.387 209.063 142.874C209.063 144.36 210.268 145.565 211.755 145.565Z" fill="#3F3D56"/>
<path d="M218.931 145.565C220.417 145.565 221.622 144.36 221.622 142.874C221.622 141.387 220.417 140.183 218.931 140.183C217.445 140.183 216.24 141.387 216.24 142.874C216.24 144.36 217.445 145.565 218.931 145.565Z" fill="#3F3D56"/>
<path d="M15.7709 186.381C15.0289 186.381 14.4253 186.984 14.4253 187.726C14.4253 188.088 14.565 188.423 14.8186 188.67C15.0744 188.932 15.4095 189.072 15.7709 189.072H217.137C217.879 189.072 218.482 188.468 218.482 187.726C218.482 187.364 218.343 187.03 218.089 186.783C217.833 186.521 217.498 186.381 217.137 186.381H15.7709Z" fill="#E6E6E6"/>
<path d="M192.02 185.932V189.52H15.7712C15.2778 189.52 14.8293 189.323 14.5063 188.991C14.1744 188.668 13.9771 188.22 13.9771 187.726C13.9771 186.739 14.7844 185.932 15.7711 185.932H192.02Z" fill="#009EDD"/>
<path d="M214.894 179.204H196.953C194.975 179.204 193.365 177.595 193.365 175.616C193.365 173.637 194.975 172.028 196.953 172.028H214.894C216.873 172.028 218.483 173.637 218.483 175.616C218.483 177.595 216.873 179.204 214.894 179.204Z" fill="#E6E6E6"/>
<path d="M97.3808 160.366H17.1165C15.138 160.366 13.5283 158.757 13.5283 156.778C13.5283 154.799 15.138 153.19 17.1165 153.19H97.3808C99.3593 153.19 100.969 154.799 100.969 156.778C100.969 158.757 99.3593 160.366 97.3808 160.366Z" fill="#E6E6E6"/>
<path d="M15.7709 226.748C15.0289 226.748 14.4253 227.351 14.4253 228.093C14.4253 228.455 14.565 228.79 14.8186 229.037C15.0744 229.299 15.4095 229.439 15.7709 229.439H217.137C217.879 229.439 218.482 228.835 218.482 228.093C218.482 227.732 218.343 227.397 218.089 227.15C217.833 226.888 217.498 226.748 217.137 226.748H15.7709Z" fill="#E6E6E6"/>
<path d="M122.947 226.299V229.888H15.7712C15.2778 229.888 14.8293 229.69 14.5063 229.358C14.1744 229.035 13.9771 228.587 13.9771 228.093C13.9771 227.107 14.7844 226.299 15.7711 226.299H122.947Z" fill="#009EDD"/>
<path d="M214.894 219.571H196.953C194.975 219.571 193.365 217.962 193.365 215.983C193.365 214.004 194.975 212.395 196.953 212.395H214.894C216.873 212.395 218.483 214.004 218.483 215.983C218.483 217.962 216.873 219.571 214.894 219.571Z" fill="#E6E6E6"/>
<path d="M246.302 68.1177C261.819 68.1177 274.397 55.8043 274.397 40.6149C274.397 25.4255 261.819 13.1121 246.302 13.1121C230.786 13.1121 218.208 25.4255 218.208 40.6149C218.208 55.8043 230.786 68.1177 246.302 68.1177Z" fill="#009EDD"/>
<path d="M255.837 26.7423C252.097 33.553 248.357 40.3637 244.617 47.1744C242.233 42.9625 239.862 38.7431 237.472 34.5345C236.647 33.081 234.402 34.3883 235.229 35.8455C238 40.7242 240.741 45.6192 243.511 50.4979C243.985 51.3321 245.285 51.3514 245.754 50.4979C249.863 43.0163 253.971 35.5348 258.08 28.0533C258.885 26.5872 256.643 25.2752 255.837 26.7423Z" fill="white"/>
<path d="M285.086 113.109L257.094 99.7188C257.094 99.7188 255.97 90.7566 250.721 87.5599C249.829 85.4309 248.802 83.092 247.869 81.2387C245.563 76.6556 249.022 68.0068 246.139 68.0068C243.257 68.0068 238.995 77.1027 239.22 79.5385C239.394 81.4083 240.939 84.6728 241.258 87.5304C237.743 88.8563 234.907 91.1288 233.042 92.9382C231.429 94.504 230.829 96.8402 231.46 98.9985C233.287 105.253 237.855 118.169 244.41 118.169C253.058 118.169 255.365 116.44 255.365 116.44C255.365 116.44 273.239 138.926 286.5 140.656C299.762 142.386 285.086 113.109 285.086 113.109V113.109Z" fill="#FFB6B6"/>
</svg>

<svg width="296" height="307" fill="none" xmlns="http://www.w3.org/2000/svg"><path d="M262.572 233.636l-.006.138L269.491 307h-50.532l-6.549-44.973-2.883 43.82-51.893-.577 5.512-57.531 4.688-26.667v-.006l.703-4.013h92.657l.121 1.453 1.257 15.13z" fill="#2F2E41"/><path d="M129.031 276.085c5.352.975 10.932-5.052 12.464-13.462.671-3.681.454-7.209-.45-10.094l.821-4.848 13.771-65.216s25.358-50.725 25.357-59.531c0-8.806-7.335-13.125-7.335-13.125l-9.926.093-31.125 76.02-5.606 56.176-.907 7.708c-1.863 2.38-3.309 5.605-3.98 9.286-1.532 8.41 1.564 16.018 6.916 16.993zM229.995 78.385l-9.225-21.333-29.982 5.19-2.018 25.099 41.225-8.956z" fill="#FFB6B6"/><path opacity=".1" d="M229.995 78.385l-9.225-21.333-29.982 5.19-2.018 25.099 41.225-8.956z" fill="#000"/><path d="M295.149 122.782s-21.333-39.784-25.369-43.82c-1.797-1.797-4.621-1.822-7.204-1.298L232.878 67.43l-10.066-5.656-.663 10.76-33.047 5.932c.184-6.562 1.109-9.058 1.109-9.058l-12.108 14.167-23.64 11.531.013.104c-1.735.606-3.379 1.642-4.625 3.356-4.613 6.342-17.298 83.604-17.298 83.604l27.1 5.766 3.688-23.144 2.654 20.837 2.018 38.92s36.901 31.712 54.775 20.18c17.874-11.532 39.784-10.955 39.784-10.955l.547-18.04c.389-.622.607-.987.607-.987l-.577-63.992v-17.027c4.392 6.119 9.693 11.382 15.856 13.847 20.18 8.072 16.144-24.793 16.144-24.793z" fill="#E6E6E6"/><path d="M202.645 65.995c15.233 0 27.583-12.35 27.583-27.583 0-15.234-12.35-27.583-27.583-27.583-15.234 0-27.583 12.35-27.583 27.583 0 15.233 12.349 27.583 27.583 27.583z" fill="#FFB6B6"/><path d="M222.433 46.207s2.398-8.395 7.795-7.795c5.397.6 6.596-4.198 5.397-6.596-1.2-2.399-3.598-14.391-3.598-14.391s1.199-8.395-5.996-9.594c-7.196-1.2-9.594-2.399-10.794-4.797-1.199-2.399-19.188-4.797-25.184-1.2-5.996 3.598-10.793 10.501-14.99 12.446-4.198 1.946-7.796 5.543-5.397 11.54 2.398 5.996 5.877 17.723 5.877 17.723s6.115-2.133 7.315 1.465c1.199 3.597-3.598-1.2 2.398-10.794 5.996-9.594 5.996-19.188 15.59-15.59 9.594 3.598 20.388 2.399 19.188 9.594-1.199 7.196 2.399 17.989 2.399 17.989z" fill="#2F2E41"/><path d="M220.746 264.872H11.265C5.34 264.872.52 260.053.52 254.129V142.853c0-5.924 4.82-10.744 10.744-10.744h209.481c5.924 0 10.744 4.82 10.744 10.744v111.276c0 5.924-4.82 10.743-10.744 10.743z" fill="#fff"/><path d="M220.746 264.872H11.265C5.34 264.872.52 260.053.52 254.129V142.853c0-5.924 4.82-10.744 10.744-10.744h209.481c5.924 0 10.744 4.82 10.744 10.744v111.276c0 5.924-4.82 10.743-10.744 10.743zM11.265 133.903c-4.935 0-8.95 4.015-8.95 8.95v111.276c0 4.935 4.015 8.949 8.95 8.949h209.481c4.935 0 8.949-4.014 8.949-8.949V142.853c0-4.935-4.014-8.95-8.949-8.95H11.265z" fill="#3F3D56"/><path d="M204.578 145.565a2.691 2.691 0 100-5.383 2.691 2.691 0 000 5.383zM211.755 145.565a2.691 2.691 0 100-5.383 2.691 2.691 0 000 5.383zM218.931 145.565a2.691 2.691 0 100-5.383 2.691 2.691 0 000 5.383z" fill="#3F3D56"/><path d="M15.77 186.381c-.741 0-1.345.603-1.345 1.345 0 .362.14.697.394.944.255.262.59.402.952.402h201.366c.742 0 1.345-.604 1.345-1.346a1.3 1.3 0 00-.393-.943 1.314 1.314 0 00-.952-.402H15.771z" fill="#E6E6E6"/><path d="M192.02 185.932v3.588H15.771c-.493 0-.942-.197-1.265-.529a1.753 1.753 0 01-.529-1.265 1.8 1.8 0 011.794-1.794H192.02z" fill="#009EDD"/><path d="M214.894 179.204h-17.941a3.592 3.592 0 01-3.588-3.588 3.592 3.592 0 013.588-3.588h17.941a3.592 3.592 0 013.589 3.588 3.592 3.592 0 01-3.589 3.588zM97.38 160.366H17.118a3.592 3.592 0 01-3.589-3.588 3.592 3.592 0 013.588-3.588h80.265a3.592 3.592 0 013.588 3.588 3.592 3.592 0 01-3.588 3.588zM15.77 226.748c-.741 0-1.345.603-1.345 1.345 0 .362.14.697.394.944.255.262.59.402.952.402h201.366c.742 0 1.345-.604 1.345-1.346 0-.361-.139-.696-.393-.943a1.314 1.314 0 00-.952-.402H15.771z" fill="#E6E6E6"/><path d="M122.947 226.299v3.589H15.771c-.493 0-.942-.198-1.265-.53a1.753 1.753 0 01-.529-1.265 1.8 1.8 0 011.794-1.794h107.176z" fill="#009EDD"/><path d="M214.894 219.571h-17.941a3.592 3.592 0 01-3.588-3.588 3.592 3.592 0 013.588-3.588h17.941a3.592 3.592 0 013.589 3.588 3.592 3.592 0 01-3.589 3.588z" fill="#E6E6E6"/><path d="M246.302 68.118c15.517 0 28.095-12.314 28.095-27.503 0-15.19-12.578-27.503-28.095-27.503-15.516 0-28.094 12.313-28.094 27.503s12.578 27.503 28.094 27.503z" fill="#009EDD"/><path d="M255.837 26.742l-11.22 20.432c-2.384-4.212-4.755-8.43-7.145-12.64-.825-1.453-3.07-.146-2.243 1.312 2.771 4.878 5.512 9.773 8.282 14.652.474.834 1.774.853 2.243 0l12.326-22.445c.805-1.466-1.437-2.778-2.243-1.31z" fill="#fff"/><path d="M285.086 113.109l-27.992-13.39s-1.124-8.962-6.373-12.16c-.892-2.128-1.919-4.467-2.852-6.32-2.306-4.583 1.153-13.232-1.73-13.232-2.882 0-7.144 9.096-6.919 11.531.174 1.87 1.719 5.135 2.038 7.992-3.515 1.326-6.351 3.599-8.216 5.408a6.07 6.07 0 00-1.582 6.06c1.827 6.255 6.395 19.171 12.95 19.171 8.648 0 10.955-1.729 10.955-1.729s17.874 22.486 31.135 24.216c13.262 1.73-1.414-27.547-1.414-27.547z" fill="#FFB6B6"/></svg>
